X:1
T:Masseschger (Neukatholisch)
C:traditionell
R:volkstanz
A:St. Martin in Passeier, Suedtirol
%%textfont Helvetica-Narrow 10pt
%%begintext align
B:COMPA bd. 10, Volksmusik in suedtirol, taenze und spielstuecke aus der tonband-sammlung Dr Alfred Quellmalz (1940-42), Franz Kofler und Walter Deutsch, hrsg. Suedtiroler Kulturinstitut, Verlag Boehlau, Wien, Koeln, Weimar, 1999
N:tonart im buch: ganz in G,  erster ton d''
N:im buch s. 362, nr. 244
N:im buch einstimmig
S:tonband-aufnahme Q-0693(25) 25/A11, vom 27.01.1941
S:ausfuehrende: Bauernmusik St. Martin
S:besetzung: 2 geigen, 2 begleitg. (sic), viola, bassgeige
%%endtext
F:http://simonwascher.info/
Z:noten-transcription: Franz Kofler
%%endtext
F:http://simonwascher.info/
Z:abc transcription: Simon Wascher
Q:1/4=112 %im buch
M:2/4
L:1/8
K:G
V:1
P:A
({def}g)z z2 | {g}fz z2 | e>f (3gfe | d2 z2 |\
{d}ce Ac | Bd GB | Ac FA |1 G2 z2 :|2 G2 {B}d2 ||
P:B
Bd G2 | Bd G2 | GB e>d | dc Bc |\
Ac F2 | Ac F2 | Ac f>e | ed cd |
Bd G2 | Bd G2 | GB e>d | dc Bc |\
Ac F2 | Ac F2 | f>d cF | G2 z2 |]
%%wordsfont Times-Italic 11pt
W:aus Simon Waschers TradArchiv
